libs/ui/packages/crypto-icons/src/svg/SMART.svg

<svg width="24" height="24" viewBox="0 0 24 24" fill="none">
<path d="M20.0001 7.61027L17.4216 6.12602C17.3331 6.07352 17.2514 6.02777 17.1636 5.97752C17.0781 5.92877 16.9949 5.87627 16.9079 5.82602C16.3911 5.53052 15.8729 5.24402 15.3621 4.93802L12.9126 3.52352C12.7701 3.43727 12.0336 3.00452 12.0021 3.00452C11.9894 3.00452 11.8964 3.06452 11.8761 3.07727L8.52964 5.00477C8.4809 5.03252 8.44714 5.05427 8.39764 5.08127C8.35511 5.10483 8.3131 5.12934 8.27165 5.15477L8.01514 5.30477C7.9715 5.33112 7.9275 5.35687 7.88314 5.38202L7.63115 5.52752C7.54264 5.58002 7.45939 5.62502 7.37239 5.67527L6.85414 5.97152C6.80914 5.99477 6.77164 6.01952 6.72814 6.04427L6.08014 6.41927C5.99014 6.47177 5.90689 6.51527 5.81914 6.56552L5.30689 6.86777C5.04964 7.01477 4.79164 7.17152 4.53064 7.31327C4.41589 7.37477 3.81364 7.74227 3.75439 7.75802V17.2935C3.80239 17.298 4.46089 17.6903 4.52914 17.7308L5.56114 18.3278C5.64739 18.3803 5.73364 18.4275 5.81914 18.477L6.32914 18.771C6.37264 18.7935 6.41164 18.819 6.45664 18.8438C6.50614 18.8708 6.53839 18.894 6.58864 18.9188C6.71989 18.9863 6.84589 19.0665 6.97114 19.1423L7.62065 19.5165C7.66564 19.5413 7.70164 19.563 7.74589 19.5893C7.99939 19.7423 8.26264 19.8795 8.5154 20.0318L9.42064 20.5568C10.0184 20.91 10.6281 21.2393 11.2229 21.5963L11.9301 22.0058C12.0426 22.0815 12.0839 21.996 12.2609 21.8993L13.8104 21.0053C13.8959 20.9558 13.9791 20.9078 14.0691 20.8575L14.3219 20.7128C14.3646 20.6895 14.4044 20.6648 14.4471 20.6385L15.8684 19.8158C16.2929 19.5615 16.7309 19.3313 17.1554 19.0763L19.9851 17.4368C20.0264 17.412 20.0676 17.3873 20.1111 17.3633C20.1561 17.3393 20.1989 17.3055 20.2499 17.2943V7.75802C20.1696 7.70402 20.0864 7.66277 20.0001 7.61027ZM14.9076 16.9433H12.4964V17.5748C12.4964 17.5823 12.4934 17.5845 12.4859 17.5845H11.3234V16.9433H9.09664V15.1583C9.09664 15.1395 9.11914 15.1238 9.13039 15.1133L9.35615 14.8695C9.3628 14.8634 9.36907 14.8569 9.3749 14.85C9.3801 14.8428 9.38587 14.8361 9.39214 14.8298L9.5234 14.6903L9.52489 14.688L9.56389 14.6483L9.58114 14.6273L9.62315 14.583L9.62765 14.5778L9.76789 14.4263C9.79789 14.3955 9.82789 14.3663 9.85639 14.3325L9.8579 14.331L9.86239 14.325L9.9569 14.2245C9.9704 14.2095 9.9809 14.2013 9.99365 14.1848L10.1076 14.0633L10.1264 14.0445C10.1326 14.0379 10.1383 14.0309 10.1436 14.0235L10.3349 13.8195L10.3364 13.818L10.3409 13.8128L10.3701 13.7828C10.4076 13.7348 10.4751 13.6748 10.5149 13.6268L10.5194 13.6208C10.5321 13.6058 10.5464 13.5953 10.5584 13.581L10.6326 13.5008C10.6851 13.4483 10.7301 13.3913 10.7826 13.3388L10.9514 13.1573L10.9701 13.1385L11.0436 13.0575C11.0579 13.0433 11.0714 13.0328 11.0826 13.0178C11.0939 13.0028 11.1081 12.9923 11.1209 12.9773L11.1951 12.897C11.2026 12.8895 11.2086 12.8843 11.2154 12.876L11.2716 12.8153C11.2829 12.8003 11.2971 12.7898 11.3099 12.7748C11.3429 12.738 11.4374 12.6413 11.4576 12.6143C11.4696 12.5993 11.4839 12.5903 11.4944 12.5753C11.4647 12.5389 11.4329 12.5043 11.3991 12.4718L11.3256 12.3908L11.3061 12.372C11.2986 12.363 11.2964 12.3585 11.2874 12.3495C11.2296 12.291 11.1764 12.2288 11.1179 12.1695L11.0241 12.0683C11.0187 12.061 11.0127 12.0543 11.0061 12.048L10.1436 11.1225C10.1379 11.1146 10.1316 11.1071 10.1249 11.1L9.99739 10.9628L9.9959 10.9613L9.71315 10.6568C9.70715 10.6493 9.70114 10.6448 9.69439 10.638L9.6194 10.5555C9.5684 10.503 9.51964 10.446 9.46789 10.3943L9.4514 10.3763L9.4499 10.3748L9.39439 10.314C9.3689 10.2863 9.3419 10.2608 9.31715 10.233C9.3089 10.224 9.30739 10.2195 9.29839 10.2105C9.24739 10.1588 9.20089 10.1025 9.1484 10.0515C9.1424 10.044 9.13639 10.0395 9.13039 10.0328C9.12364 10.0253 9.09664 9.99902 9.09664 9.99077V8.19902H11.3226V7.45502C11.7141 7.45502 12.1011 7.46252 12.4926 7.46252V8.17502C12.4926 8.18327 12.4949 8.18627 12.5031 8.18627H14.9076V9.99452H11.5904C11.6099 10.0245 11.6399 10.0493 11.6631 10.0763L11.8476 10.2788C11.8589 10.2938 11.8709 10.3043 11.8836 10.3193C11.9151 10.3568 11.9504 10.389 11.9811 10.4265L12.2496 10.7213C12.3021 10.7723 12.3471 10.83 12.3974 10.8825L13.0821 11.6348L13.0866 11.6408L13.3319 11.9108L13.3506 11.9288C13.3836 11.9618 13.4106 11.9993 13.4436 12.0323L13.8846 12.5145C13.9026 12.534 13.9221 12.552 13.9371 12.5745C13.9304 12.585 13.9251 12.588 13.9169 12.597C13.9116 12.6041 13.9058 12.6109 13.8996 12.6173L13.8074 12.717C13.8021 12.7241 13.7963 12.7309 13.7901 12.7373L13.5689 12.9795C13.5539 12.9938 13.5464 13.0058 13.5314 13.02C13.5014 13.05 13.4564 13.1063 13.4211 13.14L13.2666 13.3118C13.2359 13.3485 13.1534 13.4303 13.1286 13.4618L12.9089 13.7018C12.8616 13.7595 12.8084 13.809 12.7604 13.866L12.6704 13.9635C12.6254 14.0093 12.5864 14.058 12.5429 14.1045C12.5354 14.112 12.5294 14.1173 12.5226 14.1255C12.4716 14.1833 12.4161 14.238 12.3659 14.298L12.3584 14.307L12.1656 14.5163L12.1611 14.5215L12.1544 14.529L12.1529 14.5313L12.0644 14.6288C12.0581 14.6348 12.0524 14.6413 12.0471 14.6483C12.0413 14.6552 12.0351 14.6617 12.0284 14.6678C11.9901 14.7053 11.9571 14.7503 11.9189 14.7878C11.9127 14.7941 11.907 14.8009 11.9016 14.808L11.8281 14.889C11.8221 14.8965 11.8161 14.901 11.8094 14.9078L11.5904 15.1493H14.8154C14.8461 15.1493 14.9076 15.1418 14.9076 15.159V16.944V16.9433Z" fill="white"/>
<path d="M19.998 7.09058L17.4195 5.60633C17.331 5.55383 17.2492 5.50808 17.1615 5.45783C17.076 5.40908 16.9927 5.35658 16.9057 5.30633C16.389 5.01083 15.8707 4.72433 15.36 4.41833L12.9105 3.00383C12.768 2.91758 12.0315 2.48483 12 2.48483C11.9872 2.48483 11.8942 2.54483 11.874 2.55758L8.52749 4.48508C8.47874 4.51283 8.44499 4.53458 8.39549 4.56158C8.35295 4.58515 8.31094 4.60965 8.26949 4.63508L8.01299 4.78508C7.96935 4.81144 7.92535 4.83719 7.88099 4.86233L7.62899 5.00783C7.54049 5.06033 7.45724 5.10533 7.37024 5.15558L6.85199 5.45183C6.80699 5.47508 6.76949 5.49983 6.72599 5.52458L6.07799 5.89958C5.98799 5.95208 5.90474 5.99558 5.81699 6.04583L5.30474 6.34808C5.04749 6.49508 4.78949 6.65183 4.52849 6.79358C4.41374 6.85508 3.81149 7.22258 3.75224 7.23833V16.7738C3.80024 16.7783 4.45874 17.1706 4.52699 17.2111L5.55899 17.8081C5.64524 17.8606 5.73149 17.9078 5.81699 17.9573L6.32699 18.2513C6.37049 18.2738 6.40949 18.2993 6.45449 18.3241C6.50399 18.3511 6.53624 18.3743 6.58649 18.3991C6.71774 18.4666 6.84374 18.5468 6.96899 18.6226L7.61849 18.9968C7.66349 19.0216 7.69949 19.0433 7.74374 19.0696C7.99724 19.2226 8.26049 19.3598 8.51324 19.5121L9.41849 20.0371C10.0162 20.3903 10.626 20.7196 11.2207 21.0766L11.928 21.4861C12.0405 21.5618 12.0817 21.4763 12.2587 21.3796L13.8082 20.4856C13.8937 20.4361 13.977 20.3881 14.067 20.3378L14.3197 20.1931C14.3625 20.1698 14.4022 20.1451 14.445 20.1188L15.8662 19.2961C16.2907 19.0418 16.7287 18.8116 17.1532 18.5566L19.983 16.9171C20.0242 16.8923 20.0655 16.8676 20.109 16.8436C20.154 16.8196 20.1967 16.7858 20.2477 16.7746V7.23833C20.1675 7.18433 20.0842 7.14308 19.998 7.09058ZM14.9055 16.4236H12.4942V17.0551C12.4942 17.0626 12.4912 17.0648 12.4837 17.0648H11.3212V16.4236H9.09449V14.6386C9.09449 14.6198 9.11699 14.6041 9.12824 14.5936L9.35399 14.3498C9.36065 14.3437 9.36691 14.3372 9.37274 14.3303C9.37795 14.3231 9.38372 14.3164 9.38999 14.3101L9.52124 14.1706L9.52274 14.1683L9.56174 14.1286L9.57899 14.1076L9.62099 14.0633L9.62549 14.0581L9.76574 13.9066C9.79574 13.8758 9.82574 13.8466 9.85424 13.8128L9.85574 13.8113L9.86024 13.8053L9.95474 13.7048C9.96824 13.6898 9.97874 13.6816 9.99149 13.6651L10.1055 13.5436L10.1242 13.5248C10.1304 13.5182 10.1362 13.5112 10.1415 13.5038L10.3327 13.2998L10.3342 13.2983L10.3387 13.2931L10.368 13.2631C10.4055 13.2151 10.473 13.1551 10.5127 13.1071L10.5172 13.1011C10.53 13.0861 10.5442 13.0756 10.5562 13.0613L10.6305 12.9811C10.683 12.9286 10.728 12.8716 10.7805 12.8191L10.9492 12.6376L10.968 12.6188L11.0415 12.5378C11.0557 12.5236 11.0692 12.5131 11.0805 12.4981C11.0917 12.4831 11.106 12.4726 11.1187 12.4576L11.193 12.3773C11.2005 12.3698 11.2065 12.3646 11.2132 12.3563L11.2695 12.2956C11.2807 12.2806 11.295 12.2701 11.3077 12.2551C11.3407 12.2183 11.4352 12.1216 11.4555 12.0946C11.4675 12.0796 11.4817 12.0706 11.4922 12.0556C11.4626 12.0192 11.4308 11.9847 11.397 11.9521L11.3235 11.8711L11.304 11.8523C11.2965 11.8433 11.2942 11.8388 11.2852 11.8298C11.2275 11.7713 11.1742 11.7091 11.1157 11.6498L11.022 11.5486C11.0165 11.5414 11.0105 11.5346 11.004 11.5283L10.1415 10.6028C10.1357 10.5949 10.1295 10.5874 10.1227 10.5803L9.99524 10.4431L9.99374 10.4416L9.71099 10.1371C9.70499 10.1296 9.69899 10.1251 9.69224 10.1183L9.61724 10.0358C9.56624 9.98333 9.51749 9.92633 9.46574 9.87458L9.44924 9.85658L9.44774 9.85508L9.39224 9.79433C9.36674 9.76658 9.33974 9.74108 9.31499 9.71333C9.30674 9.70433 9.30524 9.69983 9.29624 9.69083C9.24524 9.63908 9.19874 9.58283 9.14624 9.53183C9.14024 9.52433 9.13424 9.51983 9.12824 9.51308C9.12149 9.50558 9.09449 9.47933 9.09449 9.47108V7.67933H11.3205V6.93533C11.712 6.93533 12.099 6.94283 12.4905 6.94283V7.65533C12.4905 7.66358 12.4927 7.66658 12.501 7.66658H14.9055V9.47483H11.5882C11.6077 9.50483 11.6377 9.52958 11.661 9.55658L11.8455 9.75908C11.8567 9.77408 11.8687 9.78458 11.8815 9.79958C11.913 9.83708 11.9482 9.86933 11.979 9.90683L12.2475 10.2016C12.3 10.2526 12.345 10.3103 12.3952 10.3628L13.08 11.1151L13.0845 11.1211L13.3297 11.3911L13.3485 11.4091C13.3815 11.4421 13.4085 11.4796 13.4415 11.5126L13.8825 11.9948C13.9005 12.0143 13.92 12.0323 13.935 12.0548C13.9282 12.0653 13.923 12.0683 13.9147 12.0773C13.9094 12.0844 13.9037 12.0912 13.8975 12.0976L13.8052 12.1973C13.7999 12.2044 13.7942 12.2112 13.788 12.2176L13.5667 12.4598C13.5517 12.4741 13.5442 12.4861 13.5292 12.5003C13.4992 12.5303 13.4542 12.5866 13.419 12.6203L13.2645 12.7921C13.2337 12.8288 13.1512 12.9106 13.1265 12.9421L12.9067 13.1821C12.8595 13.2398 12.8062 13.2893 12.7582 13.3463L12.6682 13.4438C12.6232 13.4896 12.5842 13.5383 12.5407 13.5848C12.5332 13.5923 12.5272 13.5976 12.5205 13.6058C12.4695 13.6636 12.414 13.7183 12.3637 13.7783L12.3562 13.7873L12.1635 13.9966L12.159 14.0018L12.1522 14.0093L12.1507 14.0116L12.0622 14.1091C12.056 14.1151 12.0502 14.1216 12.045 14.1286C12.0392 14.1355 12.0329 14.142 12.0262 14.1481C11.988 14.1856 11.955 14.2306 11.9167 14.2681C11.9106 14.2745 11.9048 14.2812 11.8995 14.2883L11.826 14.3693C11.82 14.3768 11.814 14.3813 11.8072 14.3881L11.5882 14.6296H14.8132C14.844 14.6296 14.9055 14.6221 14.9055 14.6393V16.4243V16.4236Z" fill="#FEC60D"/>
</svg>

<svg width="24" height="24" viewBox="0 0 24 24" fill="none"><path fill="#fff" d="m20 7.61-2.578-1.484-.258-.148-.256-.152c-.517-.295-1.035-.582-1.546-.888l-2.45-1.414c-.142-.087-.878-.52-.91-.52a1 1 0 0 0-.126.073L8.53 5.005c-.05.028-.083.05-.132.076l-.126.074-.257.15-.132.077-.252.146c-.088.052-.172.097-.259.147l-.518.297c-.045.023-.082.048-.126.072l-.648.375c-.09.053-.173.096-.26.147l-.513.302c-.257.147-.515.304-.776.445-.115.062-.717.43-.777.445v9.536c.048.004.707.396.775.437l1.032.597q.13.077.258.149l.51.294c.044.023.083.048.128.073.05.027.081.05.132.075.13.067.257.148.382.223l.65.375c.045.024.08.046.125.072.253.153.517.29.77.443l.905.525c.597.353 1.207.682 1.802 1.04l.707.409c.113.075.154-.01.33-.107l1.55-.894c.086-.05.17-.097.26-.147l.252-.145q.063-.035.125-.075l1.421-.822c.425-.255.863-.485 1.287-.74l2.83-1.64.126-.073c.045-.024.088-.058.139-.069V7.758c-.08-.054-.164-.095-.25-.148m-5.092 9.333h-2.412v.632q0 .01-.01.01h-1.163v-.642H9.097v-1.785c0-.018.022-.034.033-.045l.226-.243.019-.02.017-.02.131-.14.002-.002.039-.04.017-.02.042-.045.005-.005.14-.152q.046-.044.088-.094l.002-.001.004-.006.095-.1c.013-.015.024-.024.037-.04l.114-.122.018-.019.018-.02.19-.204.002-.002.005-.005.03-.03c.037-.048.104-.108.144-.156l.004-.006.04-.04.074-.08c.052-.053.097-.11.15-.162l.168-.182.02-.018.073-.082c.014-.014.027-.024.039-.04q.017-.02.038-.04l.074-.08q.011-.01.02-.021l.057-.06c.01-.016.025-.026.038-.041.033-.037.127-.134.148-.16.012-.016.026-.025.036-.04a1 1 0 0 0-.095-.103l-.073-.081-.02-.019c-.007-.009-.01-.014-.019-.022-.057-.059-.11-.121-.17-.18l-.093-.102-.018-.02-.862-.925-.02-.023-.127-.137-.001-.002-.283-.304-.019-.019-.075-.082c-.05-.053-.1-.11-.151-.162l-.017-.018-.001-.001-.056-.061-.077-.081c-.008-.009-.01-.014-.019-.023-.05-.051-.097-.108-.15-.159l-.018-.018c-.006-.008-.033-.034-.033-.042V8.199h2.226v-.744c.391 0 .778.008 1.17.008v.712q-.001.011.01.011h2.405v1.809H11.59c.02.03.05.054.073.081l.185.203c.01.015.023.025.036.04.031.038.066.07.097.107l.269.295c.052.051.097.109.147.162l.685.752.005.006.245.27.019.018c.033.033.06.07.093.103l.44.482q.03.028.053.06c-.007.011-.012.014-.02.023l-.017.02-.093.1-.017.02-.221.242c-.015.015-.023.027-.038.041-.03.03-.075.086-.11.12l-.154.172c-.031.037-.114.118-.138.15l-.22.24c-.047.057-.1.107-.149.164l-.09.098c-.045.045-.084.094-.127.14q-.011.01-.02.022c-.051.057-.107.112-.157.172l-.008.009-.192.21-.005.005-.007.007-.001.002-.089.098-.017.02-.019.019c-.038.037-.07.082-.11.12l-.016.02-.074.081-.019.019-.219.241h3.225c.031 0 .093-.007.093.01z"/><path fill="#fec60d" d="m19.998 7.09-2.579-1.484c-.088-.052-.17-.098-.258-.148l-.255-.152c-.517-.295-1.035-.582-1.546-.888l-2.45-1.414c-.142-.086-.879-.52-.91-.52a1 1 0 0 0-.126.074L8.527 4.485c-.048.028-.082.05-.132.077l-.126.073-.256.15-.132.077-.252.146c-.089.052-.172.097-.259.148l-.518.296c-.045.023-.083.048-.126.073l-.648.375c-.09.052-.173.096-.261.146l-.512.302c-.258.147-.516.304-.777.446-.114.061-.717.429-.776.444v9.536c.048.004.707.397.775.437l1.032.597c.086.053.172.1.258.15l.51.293c.043.023.082.048.127.073.05.027.082.05.132.075.132.068.258.148.383.224l.65.374.125.073c.253.153.516.29.77.442l.904.525c.598.353 1.208.683 1.803 1.04l.707.41c.112.075.154-.01.33-.107l1.55-.894c.086-.05.169-.098.259-.148l.253-.145q.063-.035.125-.074l1.421-.823c.425-.254.863-.484 1.287-.74l2.83-1.639q.06-.038.126-.073c.045-.024.088-.058.139-.07V7.239c-.08-.054-.164-.095-.25-.147m-5.093 9.334h-2.41v.631q0 .011-.011.01H11.32v-.641H9.094v-1.785c0-.02.023-.035.034-.045l.226-.244.019-.02.017-.02.131-.14.002-.002.039-.04.017-.02.042-.045.004-.005.14-.151q.045-.045.09-.094v-.002l.005-.006.095-.1c.013-.015.024-.023.036-.04l.114-.121.02-.02.017-.02.19-.204.002-.002.005-.005.029-.03c.037-.048.105-.108.145-.156l.004-.006c.013-.015.027-.025.04-.04l.073-.08c.053-.052.098-.11.15-.162l.17-.181.018-.02.073-.08q.022-.02.04-.04c.01-.015.025-.025.038-.04l.074-.08q.011-.01.02-.022l.057-.06q.017-.02.038-.04c.033-.038.127-.134.148-.161.011-.015.026-.024.036-.04a1 1 0 0 0-.095-.103l-.074-.08-.019-.02-.019-.022c-.058-.059-.11-.12-.17-.18l-.093-.101-.018-.02-.862-.926-.02-.023-.127-.137-.001-.001-.283-.305-.019-.019-.075-.082c-.05-.053-.1-.11-.151-.161l-.017-.018-.001-.002-.056-.06-.077-.082-.019-.022c-.05-.052-.097-.108-.15-.16l-.018-.018c-.007-.007-.034-.034-.034-.042V7.68h2.226v-.744c.392 0 .779.008 1.17.008v.712q0 .013.011.012h2.405v1.808h-3.318c.02.03.05.055.073.082l.184.202.037.04c.031.038.066.07.097.108l.269.295c.052.05.097.108.147.16l.685.753.005.006.245.27.018.018c.034.033.06.07.093.104l.441.482c.018.02.038.037.053.06-.007.01-.012.013-.02.022l-.017.02-.093.1-.017.02-.221.243c-.015.014-.023.026-.038.04-.03.03-.075.087-.11.12l-.155.172c-.03.037-.113.119-.137.15l-.22.24c-.047.058-.1.107-.149.164l-.09.098c-.045.046-.084.094-.127.14l-.02.022c-.052.058-.107.112-.157.172l-.008.01-.192.209-.005.005-.007.007-.001.003-.089.097-.017.02-.019.02c-.038.037-.071.082-.11.12l-.017.02-.073.08-.019.02-.219.24h3.225c.031 0 .092-.007.092.01z"/></svg>
